X:1
T:Title
%%score { ( 1 3 ) | ( 2 4 ) }
L:1/8
Q:1/4=100
M:9/8
K:Bb
V:1 treble nm="Grand Piano"
V:3 treble 
V:2 bass 
V:4 bass 
V:1
 [DF][B,D][DF] [DB]3 [DF]3 | GEG B3 G3 | AFA c3 d3 | [Ec][DB][EG] [DF]6 | %4
w: Chas.~H.~Gabriel * * * *||||
 [DF][B,D][DF] [DB]3 [DF]3 | GEG B3 G3 | AFA c3 [DFB]3 |[M:15/16] [FA][GB]/-[GB]/[=EG]F3/2- F3 | %8
w: ||||
[M:3/8] ABc |[M:9/8] [DB]3 [DF]3 [DB][Ec][Fd] | [Ec]3 [EA]3 [GB][FA][EG] | [DF]3 [DB]3 dcB | %12
w: ||||
 c6 z3 | [DB]3 [DF]3 Bcd | [Ge]3 [EG]3 [GB][FA]G | F3 d3 cBA | [DB]6- [DB]2 z |] %17
w: |||||
V:2
 [B,,B,][B,,F,][B,,B,] [B,,F,]3 [B,,B,]3 | [E,B,E][E,G,B,][E,B,E] [E,G,E]3 [E,B,E]3 | %2
 [F,E][F,A,E][F,CE] [F,A,E]3 [F,A,F]3 | [B,,B,][B,,B,][B,,B,] [B,,B,]6 | %4
 [B,,B,][B,,F,][B,,B,] [B,,F,]3 [B,,B,]3 | [E,B,E][E,G,B,][E,B,E] [E,G,E]3 [E,B,E]3 | %6
 [F,C][F,A,C][F,CF] [F,A,F]3 B,,3 |[M:15/16] [C,C][C,C]/-[C,C]/[C,B,][F,A,]3/2- [F,A,]3 | %8
[M:3/8] [F,C][F,D][F,A,E] |[M:9/8] [B,,B,]3 [B,,B,]3 [B,,B,][B,,B,][B,,B,] | %10
 [E,G,]3 [E,B,]3 [E,B,][E,B,][E,B,] | [B,,B,]3 [B,,B,]3[K:treble] [B,F][A,CF][G,C=E] | %12
 F3 z3[K:bass] z3 | [B,,F,]3 [B,,B,]3[K:treble] [B,D][B,E][B,F] | %14
 [E,B,]3 [E,B,]3 [E,B,][E,B,][E,B,E] | [F,B,D]3 [F,B,F]3 [F,A,E][F,B,E][F,CE] | %16
 [B,,B,]6- [B,,B,]2 z |] %17
V:3
 x9 | x9 | x9 | x9 | x9 | x9 | x9 |[M:15/16] x15/2 |[M:3/8] x3 |[M:9/8] x9 | x9 | x9 | %12
 z3 .E3 [DF][B,D][DF] | x9 | x9 | x9 | x9 |] %17
V:4
 x9 | x9 | x9 | x9 | x9 | x9 | x9 |[M:15/16] x15/2 |[M:3/8] x3 |[M:9/8] x9 | x9 | x6[K:treble] x3 | %12
 [F,A,]6[K:bass] [B,,B,][B,,F,][B,,B,] | x6[K:treble] x3 | x9 | x9 | x9 |] %17

